X: 4094
T: Blood Moon, The
R: jig
M: 6/8
K: Bminor
|:FBB dBB|FBB AFA|dBF B3|FBB d2d|
FBB dBB|AFD D2F|FBB dBA|fBB B3:|
|:Bff eff|Bff aff|f2d Bff|dBB fBB|
AFA BFF|F2D FDF|BFB dBd|fBB B3:|

